priv/static/svgs/icons_new/sport-olympics.svg

<svg width="32" height="32" viewBox="0 0 32 32" fill="none" xmlns="http://www.w3.org/2000/svg">
<path d="M11.5 13.0282C11.5 15.5291 9.48528 17.5564 7 17.5564C4.51472 17.5564 2.5 15.5291 2.5 13.0282C2.5 10.5273 4.51472 8.5 7 8.5C9.48528 8.5 11.5 10.5273 11.5 13.0282ZM11.5 13.0282C11.5 15.5291 13.5147 17.5564 16 17.5564C18.4853 17.5564 20.5 15.5291 20.5 13.0282M11.5 13.0282C11.5 10.5273 13.5147 8.5 16 8.5C18.4853 8.5 20.5 10.5273 20.5 13.0282M20.5 13.0282C20.5 15.5291 22.5147 17.5564 25 17.5564C27.4853 17.5564 29.5 15.5291 29.5 13.0282C29.5 10.5273 27.4853 8.5 25 8.5C22.5147 8.5 20.5 10.5273 20.5 13.0282ZM15.4184 18.9718C15.4184 21.4727 13.4036 23.5 10.9184 23.5C8.43309 23.5 6.41837 21.4727 6.41837 18.9718C6.41837 16.4709 8.43309 14.4436 10.9184 14.4436C13.4036 14.4436 15.4184 16.4709 15.4184 18.9718ZM25.6429 18.9718C25.6429 21.4727 23.6281 23.5 21.1429 23.5C18.6576 23.5 16.6429 21.4727 16.6429 18.9718C16.6429 16.4709 18.6576 14.4436 21.1429 14.4436C23.6281 14.4436 25.6429 16.4709 25.6429 18.9718Z" stroke="black" stroke-miterlimit="10"/>
</svg>

<svg width="32" height="32" viewBox="0 0 32 32" fill="none" xmlns="http://www.w3.org/2000/svg">
  <symbol id="item" viewBox="0 0 32 32" stroke-width="1" fill="none">
    <path d="M11.5 13.028c0 2.501-2.015 4.528-4.5 4.528s-4.5-2.027-4.5-4.528C2.5 10.528 4.515 8.5 7 8.5s4.5 2.027 4.5 4.528Zm0 0c0 2.501 2.015 4.528 4.5 4.528s4.5-2.027 4.5-4.528m-9 0c0-2.5 2.015-4.528 4.5-4.528s4.5 2.027 4.5 4.528m0 0c0 2.501 2.015 4.528 4.5 4.528s4.5-2.027 4.5-4.528c0-2.5-2.015-4.528-4.5-4.528s-4.5 2.027-4.5 4.528Zm-5.082 5.944c0 2.5-2.014 4.528-4.5 4.528-2.485 0-4.5-2.027-4.5-4.528 0-2.501 2.015-4.528 4.5-4.528 2.486 0 4.5 2.027 4.5 4.528Zm10.225 0c0 2.5-2.015 4.528-4.5 4.528s-4.5-2.027-4.5-4.528c0-2.501 2.015-4.528 4.5-4.528s4.5 2.027 4.5 4.528Z" stroke="currentColor" stroke-miterlimit="10"/>
  </symbol>
</svg>
